usr/share/icons/biglinux-icons-material-dark/symbolic/status/task-process-1-symbolic.svg

<svg xmlns="http://www.w3.org/2000/svg" viewBox="0 0 22 22">
<defs id="defs3051">
<style id="current-color-scheme" type="text/css">
.ColorScheme-Contrast{color:#232629}
</style>
</defs>
<path d="M11 3c-4.4 0-8 3.6-8 8s3.6 8 8 8 8-3.6 8-8-3.6-8-8-8m0 1v7h7c0 3.9-3.1 7-7 7-3.878 0-7-3.1-7-7 0-3.878 3.122-7 7-7" class="ColorScheme-Contrast" style="fill:currentColor"/>
</svg>

<svg xmlns="http://www.w3.org/2000/svg" viewBox="0 0 22 22">
  <defs
     id="defs3051">
    <style
       id="current-color-scheme"
       type="text/css">
      .ColorScheme-Text {
        color:#232629;
      }
      </style>
  </defs>
  <path
     style="fill:currentColor"
     d="M 11 3 C 6.6 3 3 6.6 3 11 C 3 15.4 6.6 19 11 19 C 15.4 19 19 15.4 19 11 C 19 6.6 15.4 3 11 3 z M 11 4 L 11 11 L 18 11 L 18 11 C 18 14.9 14.9 18 11 18 C 7.122 18 4 14.9 4 11 C 4 7.122 7.122 4 11 4 z "
     class="ColorScheme-Text"
     />
</svg>
